;FLAVOR:Marlin
;TIME:906
;Filament used: 0.256454m
;Layer height: 0.2
;MINX:91.5
;MINY:103
;MINZ:0.2
;MAXX:143.5
;MAXY:132
;MAXZ:23
;Generated with Cura_SteamEngine 4.6.1
M140 S50
M105
M190 S50
M104 S200
M105
M109 S200
M82 ;absolute extrusion mode
; Ender 3 Custom Start G-code
G92 E0 ; Reset Extruder
G28 ; Home all axes
G1 Z2.0 F3000 ; Move Z Axis up little to prevent scratching of Heat Bed
G1 X0.1 Y20 Z0.3 F5000.0 ; Move to start position
G1 X0.1 Y200.0 Z0.3 F1500.0 E15 ; Draw the first line
G1 X0.4 Y200.0 Z0.3 F5000.0 ; Move to side a little
G1 X0.4 Y20 Z0.3 F1500.0 E30 ; Draw the second line
G92 E0 ; Reset Extruder
G1 Z2.0 F3000 ; Move Z Axis up little to prevent scratching of Heat Bed
G1 X5 Y20 Z0.3 F5000.0 ; Move over to prevent blob squish
G92 E0
G92 E0
G1 F2700 E-5
;LAYER_COUNT:115
;LAYER:0
M107
G0 F6000 X132.637 Y103.811 Z0.2
;TYPE:SKIRT
G1 F2700 E0
G1 F1200 X133.539 Y103.864 E0.02712
G1 X134.432 Y103.996 E0.05422
G1 X135.31 Y104.207 E0.08132
G1 X136.166 Y104.495 E0.10843
G1 X136.993 Y104.857 E0.13553
G1 X137.785 Y105.292 E0.16266
G1 X138.536 Y105.794 E0.18977
G1 X139.239 Y106.361 E0.21688
G1 X139.889 Y106.988 E0.24399
G1 X140.481 Y107.67 E0.2711
G1 X141.011 Y108.401 E0.2982
G1 X141.473 Y109.177 E0.32531
G1 X141.866 Y109.99 E0.35242
G1 X142.184 Y110.835 E0.37952
G1 X142.427 Y111.705 E0.40663
G1 X142.592 Y112.593 E0.43375
G1 X142.687 Y113.723 E0.46778
G1 X142.7 Y114.33 E0.48601
G1 X142.699 Y120.39 E0.66791
G1 X142.69 Y121.117 E0.68974
G1 X142.639 Y122.019 E0.71686
G1 X142.508 Y122.913 E0.74398
G1 X142.299 Y123.791 E0.77107
G1 X142.013 Y124.648 E0.79819
G1 X141.652 Y125.476 E0.8253
G1 X141.22 Y126.268 E0.85238
G1 X140.719 Y127.02 E0.87951
G1 X140.153 Y127.724 E0.90662
G1 X139.528 Y128.375 E0.93371
G1 X138.847 Y128.969 E0.96084
G1 X138.116 Y129.5 E0.98796
G1 X137.342 Y129.964 E1.01505
G1 X136.529 Y130.358 E1.04217
G1 X135.685 Y130.678 E1.06926
G1 X134.815 Y130.923 E1.09639
G1 X133.928 Y131.089 E1.12348
G1 X132.777 Y131.187 E1.15815
G1 X132.17 Y131.2 E1.17638
G1 X103.075 Y131.199 E2.04973
G1 X102.377 Y131.19 E2.07068
G1 X101.476 Y131.139 E2.09777
G1 X100.582 Y131.007 E2.1249
G1 X99.704 Y130.798 E2.15199
G1 X98.847 Y130.511 E2.17912
G1 X98.02 Y130.15 E2.20621
G1 X97.227 Y129.717 E2.23333
G1 X96.476 Y129.216 E2.26043
G1 X95.772 Y128.65 E2.28754
G1 X95.121 Y128.024 E2.31465
G1 X94.528 Y127.343 E2.34176
G1 X93.998 Y126.612 E2.36886
G1 X93.534 Y125.837 E2.39597
G1 X93.14 Y125.024 E2.42309
G1 X92.82 Y124.18 E2.45019
G1 X92.576 Y123.31 E2.47731
G1 X92.41 Y122.422 E2.50443
G1 X92.313 Y121.267 E2.53922
G1 X92.3 Y120.658 E2.5575
G1 X92.301 Y114.536 E2.74127
G1 X92.31 Y113.871 E2.76123
G1 X92.362 Y112.969 E2.78835
G1 X92.494 Y112.076 E2.81545
G1 X92.704 Y111.198 E2.84255
G1 X92.991 Y110.341 E2.86968
G1 X93.353 Y109.514 E2.89678
G1 X93.786 Y108.722 E2.92387
G1 X94.288 Y107.971 E2.95099
G1 X94.855 Y107.267 E2.97812
G1 X95.481 Y106.617 E3.00521
G1 X96.162 Y106.024 E3.03231
G1 X96.894 Y105.494 E3.05944
G1 X97.669 Y105.031 E3.08654
G1 X98.482 Y104.638 E3.11365
G1 X99.327 Y104.318 E3.14077
G1 X100.196 Y104.075 E3.16785
G1 X101.084 Y103.909 E3.19497
G1 X102.223 Y103.813 E3.22928
G1 X102.83 Y103.8 E3.24751
G1 X131.939 Y103.801 E4.12128
G1 X132.637 Y103.811 E4.14223
G0 F6000 X132.643 Y103.411
G1 F1200 X133.562 Y103.464 E4.16987
G1 X134.473 Y103.597 E4.1975
G1 X135.369 Y103.808 E4.22513
G1 X136.243 Y104.096 E4.25275
G1 X137.09 Y104.459 E4.28042
G1 X137.901 Y104.894 E4.30804
G1 X138.671 Y105.398 E4.33567
G1 X139.395 Y105.967 E4.36331
G1 X140.067 Y106.597 E4.39096
G1 X140.682 Y107.282 E4.41859
G1 X141.235 Y108.018 E4.44622
G1 X141.722 Y108.799 E4.47385
G1 X142.139 Y109.62 E4.50149
G1 X142.484 Y110.474 E4.52914
G1 X142.753 Y111.354 E4.55676
G1 X142.945 Y112.255 E4.58441
G1 X143.058 Y113.168 E4.61203
G1 X143.087 Y113.712 E4.62838
G1 X143.1 Y114.33 E4.64694
G1 X143.099 Y120.395 E4.82899
G1 X143.09 Y121.122 E4.85081
G1 X143.039 Y122.041 E4.87844
G1 X142.908 Y122.953 E4.9061
G1 X142.698 Y123.849 E4.93372
G1 X142.412 Y124.724 E4.96136
G1 X142.051 Y125.571 E4.98899
G1 X141.617 Y126.383 E5.01663
G1 X141.115 Y127.155 E5.04427
G1 X140.547 Y127.88 E5.07192
G1 X139.919 Y128.553 E5.09955
G1 X139.235 Y129.169 E5.12718
G1 X138.5 Y129.723 E5.15481
G1 X137.72 Y130.212 E5.18244
G1 X136.9 Y130.631 E5.21008
G1 X136.047 Y130.977 E5.23772
G1 X135.167 Y131.248 E5.26535
G1 X134.267 Y131.441 E5.29298
G1 X133.353 Y131.556 E5.32064
G1 X132.788 Y131.587 E5.33762
G1 X132.17 Y131.6 E5.35618
G1 X103.07 Y131.599 E6.22968
G1 X102.372 Y131.59 E6.25063
G1 X101.453 Y131.538 E6.27826
G1 X100.542 Y131.407 E6.30589
G1 X99.646 Y131.197 E6.33351
G1 X98.771 Y130.91 E6.36116
G1 X97.924 Y130.548 E6.38881
G1 X97.112 Y130.114 E6.41644
G1 X96.341 Y129.612 E6.44406
G1 X95.616 Y129.044 E6.47171
G1 X94.943 Y128.415 E6.49936
G1 X94.328 Y127.731 E6.52697
G1 X93.774 Y126.996 E6.5546
G1 X93.286 Y126.215 E6.58224
G1 X92.867 Y125.395 E6.60988
G1 X92.521 Y124.542 E6.63751
G1 X92.251 Y123.662 E6.66514
G1 X92.058 Y122.761 E6.6928
G1 X91.944 Y121.848 E6.72042
G1 X91.913 Y121.277 E6.73758
G1 X91.9 Y120.658 E6.75617
G1 X91.901 Y114.531 E6.94009
G1 X91.91 Y113.866 E6.96005
G1 X91.962 Y112.946 E6.98771
G1 X92.094 Y112.035 E7.01534
G1 X92.305 Y111.139 E7.04297
G1 X92.592 Y110.264 E7.07061
G1 X92.955 Y109.418 E7.09825
G1 X93.389 Y108.606 E7.12588
G1 X93.892 Y107.835 E7.15352
G1 X94.461 Y107.111 E7.18116
G1 X95.089 Y106.439 E7.20877
G1 X95.774 Y105.823 E7.23642
G1 X96.51 Y105.27 E7.26405
G1 X97.291 Y104.782 E7.2917
G1 X98.111 Y104.364 E7.31932
G1 X98.965 Y104.019 E7.34697
G1 X99.845 Y103.749 E7.3746
G1 X100.745 Y103.557 E7.40223
G1 X101.659 Y103.443 E7.42987
G1 X102.212 Y103.413 E7.4465
G1 X102.83 Y103.4 E7.46505
G1 X131.945 Y103.401 E8.33901
G1 X132.643 Y103.411 E8.35996
G0 F6000 X132.649 Y103.011
G1 F1200 X133.585 Y103.065 E8.3881
G1 X134.513 Y103.197 E8.41624
G1 X135.427 Y103.409 E8.4444
G1 X136.319 Y103.698 E8.47255
G1 X137.184 Y104.061 E8.50071
G1 X138.014 Y104.497 E8.52885
G1 X138.805 Y105.002 E8.55702
G1 X139.549 Y105.573 E8.58517
G1 X140.242 Y106.205 E8.61333
G1 X140.879 Y106.893 E8.64147
G1 X141.454 Y107.634 E8.66962
G1 X141.965 Y108.42 E8.69777
G1 X142.407 Y109.248 E8.72594
G1 X142.776 Y110.11 E8.75409
G1 X143.071 Y111 E8.78223
G1 X143.289 Y111.912 E8.81038
G1 X143.429 Y112.84 E8.83855
G1 X143.487 Y113.701 E8.86445
G1 X143.5 Y114.33 E8.88334
G1 X143.499 Y120.4 E9.06554
G1 X143.49 Y121.127 E9.08737
G1 X143.439 Y122.064 E9.11553
G1 X143.307 Y122.992 E9.14367
G1 X143.098 Y123.906 E9.17181
G1 X142.811 Y124.799 E9.19997
G1 X142.449 Y125.665 E9.22814
G1 X142.015 Y126.496 E9.25629
G1 X141.511 Y127.287 E9.28444
G1 X140.942 Y128.032 E9.31258
G1 X140.311 Y128.727 E9.34076
G1 X139.624 Y129.365 E9.3689
G1 X138.885 Y129.942 E9.39704
G1 X138.099 Y130.454 E9.4252
G1 X137.273 Y130.897 E9.45334
G1 X136.411 Y131.269 E9.48152
G1 X135.522 Y131.565 E9.50964
G1 X134.61 Y131.785 E9.5378
G1 X133.683 Y131.926 E9.56595
G1 X132.799 Y131.987 E9.59255
G1 X132.17 Y132 E9.61143
G1 X103.065 Y131.999 E10.48509
G1 X102.367 Y131.99 E10.50604
G1 X101.431 Y131.938 E10.53418
G1 X100.502 Y131.806 E10.56235
G1 X99.588 Y131.596 E10.5905
G1 X98.695 Y131.309 E10.61865
G1 X97.83 Y130.946 E10.64681
G1 X96.999 Y130.512 E10.67495
G1 X96.208 Y130.008 E10.70311
G1 X95.463 Y129.438 E10.73126
G1 X94.769 Y128.807 E10.75942
G1 X94.132 Y128.12 E10.78754
G1 X93.555 Y127.38 E10.81571
G1 X93.043 Y126.594 E10.84387
G1 X92.6 Y125.767 E10.87203
G1 X92.229 Y124.906 E10.90017
G1 X91.933 Y124.016 E10.92832
G1 X91.714 Y123.104 E10.95648
G1 X91.573 Y122.177 E10.98462
G1 X91.513 Y121.288 E11.01137
G1 X91.5 Y120.658 E11.03029
G1 X91.501 Y114.525 E11.21438
G1 X91.51 Y113.86 E11.23434
G1 X91.563 Y112.924 E11.26249
G1 X91.695 Y111.995 E11.29065
G1 X91.906 Y111.081 E11.31881
G1 X92.194 Y110.189 E11.34695
G1 X92.557 Y109.324 E11.3751
G1 X92.992 Y108.493 E11.40326
G1 X93.496 Y107.703 E11.43139
G1 X94.066 Y106.958 E11.45955
G1 X94.698 Y106.264 E11.48772
G1 X95.386 Y105.627 E11.51587
G1 X96.126 Y105.051 E11.54401
G1 X96.912 Y104.539 E11.57217
G1 X97.739 Y104.097 E11.60032
G1 X98.601 Y103.727 E11.62848
G1 X99.491 Y103.431 E11.65663
G1 X100.403 Y103.213 E11.68478
G1 X101.33 Y103.072 E11.71292
G1 X102.201 Y103.013 E11.73913
G1 X102.83 Y103 E11.75801
G1 X131.951 Y103.001 E12.63215
G1 X132.649 Y103.011 E12.6531
G1 F2700 E7.6531
;MESH:stringing.stl
G0 F6000 X132.086 Y113.335
G0 X132.086 Y114.414
G0 X103.282 Y114.782
G0 X103.1 Y120.4
;TYPE:WALL-INNER
G1 F2700 E12.6531
G1 F1200 X103.1 Y114.6 E12.8272
G1 X131.9 Y114.6 E13.6917
G1 X131.9 Y120.4 E13.8658
G1 X103.1 Y120.4 E14.7303
G0 F6000 X102.7 Y120.8
;TYPE:WALL-OUTER
G1 F1200 X102.7 Y114.2 E14.92841
G1 X132.3 Y114.2 E15.81692
G1 X132.3 Y120.8 E16.01504
G1 X102.7 Y120.8 E16.90355
G0 F6000 X102.97 Y120.53
G0 X103.21 Y120.01
G0 X103.49 Y120.01
;TYPE:SKIN
G1 F1200 X103.49 Y114.99 E17.05423
G1 X131.51 Y114.99 E17.89532
G1 X131.51 Y120.01 E18.046
G1 X103.49 Y120.01 E18.88709
G0 F6000 X104.01 Y119.849
G1 F1200 X103.649 Y119.489 E18.90239
G0 F6000 X103.649 Y118.923
G1 F1200 X104.576 Y119.849 E18.94172
G0 F6000 X105.141 Y119.849
G1 F1200 X103.649 Y118.357 E19.00506
G0 F6000 X103.649 Y117.791
G1 F1200 X105.707 Y119.849 E19.09242
G0 F6000 X106.273 Y119.849
G1 F1200 X103.649 Y117.226 E19.20379
G0 F6000 X103.649 Y116.66
G1 F1200 X106.838 Y119.849 E19.33917
G0 F6000 X107.404 Y119.849
G1 F1200 X103.649 Y116.094 E19.49857
G0 F6000 X103.649 Y115.529
G1 F1200 X107.97 Y119.849 E19.68198
G0 F6000 X108.535 Y119.849
G1 F1200 X103.835 Y115.149 E19.8815
G0 F6000 X104.401 Y115.149
G1 F1200 X109.101 Y119.849 E20.08102
G0 F6000 X109.667 Y119.849
G1 F1200 X104.967 Y115.149 E20.28054
G0 F6000 X105.532 Y115.149
G1 F1200 X110.232 Y119.849 E20.48006
G0 F6000 X110.798 Y119.849
G1 F1200 X106.098 Y115.149 E20.67957
G0 F6000 X106.664 Y115.149
G1 F1200 X111.364 Y119.849 E20.87909
G0 F6000 X111.93 Y119.849
G1 F1200 X107.229 Y115.149 E21.07863
G0 F6000 X107.795 Y115.149
G1 F1200 X112.495 Y119.849 E21.27815
G0 F6000 X113.061 Y119.849
G1 F1200 X108.361 Y115.149 E21.47767
G0 F6000 X108.926 Y115.149
G1 F1200 X113.627 Y119.849 E21.67721
G0 F6000 X114.192 Y119.849
G1 F1200 X109.492 Y115.149 E21.87673
G0 F6000 X110.058 Y115.149
G1 F1200 X114.758 Y119.849 E22.07625
G0 F6000 X115.324 Y119.849
G1 F1200 X110.624 Y115.149 E22.27577
G0 F6000 X111.189 Y115.149
G1 F1200 X115.889 Y119.849 E22.47529
G0 F6000 X116.455 Y119.849
G1 F1200 X111.755 Y115.149 E22.67481
G0 F6000 X112.321 Y115.149
G1 F1200 X117.021 Y119.849 E22.87433
G0 F6000 X117.586 Y119.849
G1 F1200 X112.886 Y115.149 E23.07384
G0 F6000 X113.452 Y115.149
G1 F1200 X118.152 Y119.849 E23.27336
G0 F6000 X118.718 Y119.849
G1 F1200 X114.018 Y115.149 E23.47288
G0 F6000 X114.583 Y115.149
G1 F1200 X119.283 Y119.849 E23.6724
G0 F6000 X119.849 Y119.849
G1 F1200 X115.149 Y115.149 E23.87192
G0 F6000 X115.715 Y115.149
G1 F1200 X120.415 Y119.849 E24.07144
G0 F6000 X120.981 Y119.849
G1 F1200 X116.28 Y115.149 E24.27098
G0 F6000 X116.846 Y115.149
G1 F1200 X121.546 Y119.849 E24.4705
G0 F6000 X122.112 Y119.849
G1 F1200 X117.412 Y115.149 E24.67002
G0 F6000 X117.977 Y115.149
G1 F1200 X122.678 Y119.849 E24.86956
G0 F6000 X123.243 Y119.849
G1 F1200 X118.543 Y115.149 E25.06908
G0 F6000 X119.109 Y115.149
G1 F1200 X123.809 Y119.849 E25.26859
G0 F6000 X124.375 Y119.849
G1 F1200 X119.674 Y115.149 E25.46813
G0 F6000 X120.24 Y115.149
G1 F1200 X124.94 Y119.849 E25.66765
G0 F6000 X125.506 Y119.849
G1 F1200 X120.806 Y115.149 E25.86717
G0 F6000 X121.372 Y115.149
G1 F1200 X126.072 Y119.849 E26.06669
G0 F6000 X126.637 Y119.849
G1 F1200 X121.937 Y115.149 E26.26621
G0 F6000 X122.503 Y115.149
G1 F1200 X127.203 Y119.849 E26.46573
G0 F6000 X127.769 Y119.849
G1 F1200 X123.069 Y115.149 E26.66525
G0 F6000 X123.634 Y115.149
G1 F1200 X128.334 Y119.849 E26.86477
G0 F6000 X128.9 Y119.849
G1 F1200 X124.2 Y115.149 E27.06429
G0 F6000 X124.766 Y115.149
G1 F1200 X129.466 Y119.849 E27.26381
G0 F6000 X130.031 Y119.849
G1 F1200 X125.331 Y115.149 E27.46332
G0 F6000 X125.897 Y115.149
G1 F1200 X130.597 Y119.849 E27.66284
G0 F6000 X131.163 Y119.849
G1 F1200 X126.463 Y115.149 E27.86236
G0 F6000 X127.028 Y115.149
G1 F1200 X131.349 Y119.469 E28.04577
G0 F6000 X131.349 Y118.904
G1 F1200 X127.594 Y115.149 E28.20517
G0 F6000 X128.16 Y115.149
G1 F1200 X131.349 Y118.338 E28.34055
G0 F6000 X131.349 Y117.772
G1 F1200 X128.725 Y115.149 E28.45192
G0 F6000 X129.291 Y115.149
G1 F1200 X131.349 Y117.207 E28.53928
G0 F6000 X131.349 Y116.641
G1 F1200 X129.857 Y115.149 E28.60262
G0 F6000 X130.423 Y115.149
G1 F1200 X131.349 Y116.075 E28.64193
G0 F6000 X131.349 Y115.51
G1 F1200 X130.988 Y115.149 E28.65725
G0 F6000 X130.988 Y114.8
G1 F2700 E23.65725
;MESH:NONMESH
G0 F300 X130.988 Y114.8 Z0.4
G0 F6000 X130.988 Y114.71
G0 X103.282 Y114.782
G0 X103.1 Y120.4
;TIME_ELAPSED:58.890763
;LAYER:1
M140 S50
M106 S85
;TYPE:WALL-INNER
;MESH:stringing.stl
G1 F2700 E28.65725
G1 F1350 X103.1 Y114.6 E28.84052
G1 X131.9 Y114.6 E29.75051
G1 X131.9 Y120.4 E29.93378
G1 X103.1 Y120.4 E30.84378
G0 F7500 X102.7 Y120.8
;TYPE:WALL-OUTER
G1 F1350 X102.7 Y114.2 E31.05232
G1 X132.3 Y114.2 E31.98759
G1 X132.3 Y120.8 E32.19613
G1 X102.7 Y120.8 E33.13141
G0 F7500 X102.97 Y120.53
G0 X103.21 Y120.01
G0 X103.49 Y120.01
;TYPE:SKIN
G1 F1350 X103.49 Y114.99 E33.29002
G1 X131.51 Y114.99 E34.17538
G1 X131.51 Y120.01 E34.33399
G1 X103.49 Y120.01 E35.21935
G0 F7500 X103.21 Y120.01
G0 X103.21 Y115.27
G0 X103.649 Y115.27
G1 F1350 X103.771 Y115.148 E35.2248
G0 F7500 X104.337 Y115.148
G1 F1350 X103.649 Y115.836 E35.25554
G0 F7500 X103.649 Y116.401
G1 F1350 X104.902 Y115.148 E35.31153
G0 F7500 X105.468 Y115.148
G1 F1350 X103.649 Y116.967 E35.39281
G0 F7500 X103.649 Y117.533
G1 F1350 X106.034 Y115.148 E35.49939
G0 F7500 X106.599 Y115.148
G1 F1350 X103.649 Y118.098 E35.63121
G0 F7500 X103.649 Y118.664
G1 F1350 X107.165 Y115.148 E35.78832
G0 F7500 X107.731 Y115.148
G1 F1350 X103.649 Y119.23 E35.97073
G0 F7500 X103.649 Y119.795
G1 F1350 X108.296 Y115.148 E36.17838
G0 F7500 X108.862 Y115.148
G1 F1350 X104.161 Y119.85 E36.38846
G0 F7500 X104.726 Y119.85
G1 F1350 X109.428 Y115.148 E36.59857
G0 F7500 X109.993 Y115.148
G1 F1350 X105.292 Y119.85 E36.80866
G0 F7500 X105.858 Y119.85
G1 F1350 X110.559 Y115.148 E37.01875
G0 F7500 X111.125 Y115.148
G1 F1350 X106.423 Y119.85 E37.22886
G0 F7500 X106.989 Y119.85
G1 F1350 X111.691 Y115.148 E37.43897
G0 F7500 X112.256 Y115.148
G1 F1350 X107.555 Y119.85 E37.64905
G0 F7500 X108.12 Y119.85
G1 F1350 X112.822 Y115.148 E37.85916
G0 F7500 X113.388 Y115.148
G1 F1350 X108.686 Y119.85 E38.06927
G0 F7500 X109.252 Y119.85
G1 F1350 X113.953 Y115.148 E38.27936
G0 F7500 X114.519 Y115.148
G1 F1350 X109.817 Y119.85 E38.48947
G0 F7500 X110.383 Y119.85
G1 F1350 X115.085 Y115.148 E38.69958
G0 F7500 X115.65 Y115.148
G1 F1350 X110.949 Y119.85 E38.90966
G0 F7500 X111.514 Y119.85
G1 F1350 X116.216 Y115.148 E39.11977
G0 F7500 X116.782 Y115.148
G1 F1350 X112.08 Y119.85 E39.32988
G0 F7500 X112.646 Y119.85
G1 F1350 X117.347 Y115.148 E39.53997
G0 F7500 X117.913 Y115.148
G1 F1350 X113.212 Y119.85 E39.75006
G0 F7500 X113.777 Y119.85
G1 F1350 X118.479 Y115.148 E39.96017
G0 F7500 X119.044 Y115.148
G1 F1350 X114.343 Y119.85 E40.17025
G0 F7500 X114.909 Y119.85
G1 F1350 X119.61 Y115.148 E40.38034
G0 F7500 X120.176 Y115.148
G1 F1350 X115.474 Y119.85 E40.59045
G0 F7500 X116.04 Y119.85
G1 F1350 X120.742 Y115.148 E40.80056
G0 F7500 X121.307 Y115.148
G1 F1350 X116.606 Y119.85 E41.01064
G0 F7500 X117.171 Y119.85
G1 F1350 X121.873 Y115.148 E41.22075
G0 F7500 X122.439 Y115.148
G1 F1350 X117.737 Y119.85 E41.43086
G0 F7500 X118.303 Y119.85
G1 F1350 X123.004 Y115.148 E41.64095
G0 F7500 X123.57 Y115.148
