;FLAVOR:Marlin
;TIME:915
;Filament used: 0.27158m
;Layer height: 0.2
;MINX:91.5
;MINY:103
;MINZ:0.2
;MAXX:143.5
;MAXY:132
;MAXZ:23
;Generated with Cura_SteamEngine 4.8.0
M140 S50
M105
M190 S50
M104 S200
M105
M109 S200
M82 ;absolute extrusion mode
; Ender 3 Custom Start G-code
G92 E0 ; Reset Extruder
G28 ; Home all axes
G1 Z2.0 F3000 ; Move Z Axis up little to prevent scratching of Heat Bed
G1 X0.1 Y20 Z0.3 F5000.0 ; Move to start position
G1 X0.1 Y200.0 Z0.3 F1500.0 E15 ; Draw the first line
G1 X0.4 Y200.0 Z0.3 F5000.0 ; Move to side a little
G1 X0.4 Y20 Z0.3 F1500.0 E30 ; Draw the second line
G92 E0 ; Reset Extruder
G1 Z2.0 F3000 ; Move Z Axis up little to prevent scratching of Heat Bed
G1 X5 Y20 Z0.3 F5000.0 ; Move over to prevent blob squish
G92 E0
G92 E0
G1 F2700 E-5
;LAYER_COUNT:115
;LAYER:0
M107
G0 F6000 X95.386 Y105.627 Z0.2
;TYPE:SKIRT
G1 F2700 E0
G1 F1200 X96.126 Y105.051 E0.03119
G1 X96.912 Y104.539 E0.06239
G1 X97.739 Y104.097 E0.09358
G1 X98.601 Y103.727 E0.12478
G1 X99.491 Y103.431 E0.15597
G1 X100.403 Y103.213 E0.18716
G1 X101.33 Y103.072 E0.21835
G1 X102.201 Y103.013 E0.24738
G1 X102.522 Y103.004 E0.25806
G1 X102.83 Y103 E0.26831
G1 X131.793 Y103 E1.23162
G1 X132.649 Y103.011 E1.2601
G1 X133.585 Y103.065 E1.29128
G1 X134.513 Y103.197 E1.32246
G1 X135.427 Y103.409 E1.35366
G1 X136.319 Y103.698 E1.38485
G1 X137.184 Y104.061 E1.41605
G1 X138.014 Y104.497 E1.44723
G1 X138.805 Y105.002 E1.47845
G1 X139.549 Y105.573 E1.50964
G1 X140.242 Y106.205 E1.54083
G1 X140.879 Y106.893 E1.57202
G1 X141.454 Y107.634 E1.60321
G1 X141.965 Y108.42 E1.6344
G1 X142.407 Y109.248 E1.66561
G1 X142.776 Y110.11 E1.6968
G1 X143.071 Y111 E1.72798
G1 X143.289 Y111.912 E1.75917
G1 X143.429 Y112.84 E1.79039
G1 X143.487 Y113.701 E1.81909
G1 X143.496 Y114.021 E1.82974
G1 X143.5 Y114.33 E1.84002
G1 X143.499 Y120.4 E2.0419
G1 X143.49 Y121.127 E2.06609
G1 X143.439 Y122.064 E2.0973
G1 X143.307 Y122.992 E2.12847
G1 X143.098 Y123.906 E2.15966
G1 X142.811 Y124.799 E2.19085
G1 X142.449 Y125.665 E2.22207
G1 X142.015 Y126.496 E2.25325
G1 X141.511 Y127.287 E2.28445
G1 X140.942 Y128.032 E2.31563
G1 X140.311 Y128.727 E2.34685
G1 X139.624 Y129.365 E2.37803
G1 X138.885 Y129.942 E2.40922
G1 X138.099 Y130.454 E2.44042
G1 X137.273 Y130.897 E2.47159
G1 X136.411 Y131.269 E2.50282
G1 X135.522 Y131.565 E2.53398
G1 X134.61 Y131.785 E2.56519
G1 X133.683 Y131.926 E2.59637
G1 X132.799 Y131.987 E2.62585
G1 X132.478 Y131.996 E2.63653
G1 X132.17 Y132 E2.64677
G1 X103.065 Y131.999 E3.61481
G1 X102.367 Y131.99 E3.63802
G1 X101.431 Y131.938 E3.6692
G1 X100.502 Y131.806 E3.70041
G1 X99.588 Y131.596 E3.7316
G1 X98.695 Y131.309 E3.7628
G1 X97.83 Y130.946 E3.794
G1 X96.999 Y130.512 E3.82518
G1 X96.208 Y130.008 E3.85638
G1 X95.463 Y129.438 E3.88758
G1 X94.769 Y128.807 E3.91878
G1 X94.132 Y128.12 E3.94994
G1 X93.555 Y127.38 E3.98115
G1 X93.043 Y126.594 E4.01235
G1 X92.6 Y125.767 E4.04355
G1 X92.229 Y124.906 E4.07473
G1 X91.933 Y124.016 E4.10593
G1 X91.714 Y123.104 E4.13712
G1 X91.573 Y122.177 E4.16831
G1 X91.513 Y121.288 E4.19795
G1 X91.504 Y120.955 E4.20903
G1 X91.5 Y120.658 E4.21891
G1 X91.501 Y114.525 E4.42289
G1 X91.51 Y113.86 E4.44501
G1 X91.563 Y112.924 E4.47619
G1 X91.695 Y111.995 E4.5074
G1 X91.906 Y111.081 E4.5386
G1 X92.194 Y110.189 E4.56978
G1 X92.557 Y109.324 E4.60098
G1 X92.992 Y108.493 E4.63217
G1 X93.496 Y107.703 E4.66334
G1 X94.066 Y106.958 E4.69454
G1 X94.698 Y106.264 E4.72576
G1 X95.386 Y105.627 E4.75695
G0 F6000 X95.774 Y105.823
G1 F1200 X96.51 Y105.27 E4.78756
G1 X97.291 Y104.782 E4.81819
G1 X98.111 Y104.364 E4.84881
G1 X98.965 Y104.019 E4.87944
G1 X99.845 Y103.749 E4.91006
G1 X100.745 Y103.557 E4.94066
G1 X101.659 Y103.443 E4.9713
G1 X102.212 Y103.413 E4.98972
G1 X102.533 Y103.404 E5.0004
G1 X102.83 Y103.4 E5.01028
G1 X131.793 Y103.4 E5.97359
G1 X132.643 Y103.411 E6.00187
G1 X133.562 Y103.464 E6.03248
G1 X134.473 Y103.597 E6.0631
G1 X135.369 Y103.808 E6.09372
G1 X136.243 Y104.096 E6.12433
G1 X137.09 Y104.459 E6.15498
G1 X137.901 Y104.894 E6.18559
G1 X138.671 Y105.398 E6.2162
G1 X139.395 Y105.967 E6.24682
G1 X140.067 Y106.597 E6.27746
G1 X140.682 Y107.282 E6.30808
G1 X141.235 Y108.018 E6.3387
G1 X141.722 Y108.799 E6.36931
G1 X142.139 Y109.62 E6.39994
G1 X142.484 Y110.474 E6.43057
G1 X142.753 Y111.354 E6.46118
G1 X142.945 Y112.255 E6.49182
G1 X143.058 Y113.168 E6.52241
G1 X143.087 Y113.712 E6.54053
G1 X143.096 Y114.032 E6.55118
G1 X143.1 Y114.33 E6.56109
G1 X143.099 Y120.395 E6.76282
G1 X143.09 Y121.122 E6.787
G1 X143.039 Y122.041 E6.81761
G1 X142.908 Y122.953 E6.84826
G1 X142.698 Y123.849 E6.87886
G1 X142.412 Y124.724 E6.90948
G1 X142.051 Y125.571 E6.94011
G1 X141.617 Y126.383 E6.97073
G1 X141.115 Y127.155 E7.00136
G1 X140.547 Y127.88 E7.03199
G1 X139.919 Y128.553 E7.06261
G1 X139.235 Y129.169 E7.09322
G1 X138.5 Y129.723 E7.12383
G1 X137.72 Y130.212 E7.15445
G1 X136.9 Y130.631 E7.18508
G1 X136.047 Y130.977 E7.2157
G1 X135.167 Y131.248 E7.24632
G1 X134.267 Y131.441 E7.27694
G1 X133.353 Y131.556 E7.30758
G1 X132.788 Y131.587 E7.3264
G1 X132.467 Y131.596 E7.33708
G1 X132.17 Y131.6 E7.34696
G1 X103.07 Y131.599 E8.31483
G1 X102.372 Y131.59 E8.33804
G1 X101.453 Y131.538 E8.36866
G1 X100.542 Y131.407 E8.39927
G1 X99.646 Y131.197 E8.42988
G1 X98.771 Y130.91 E8.46051
G1 X97.924 Y130.548 E8.49114
G1 X97.112 Y130.114 E8.52177
G1 X96.341 Y129.612 E8.55237
G1 X95.616 Y129.044 E8.583
G1 X94.943 Y128.415 E8.61364
G1 X94.328 Y127.731 E8.64423
G1 X93.774 Y126.996 E8.67484
G1 X93.286 Y126.215 E8.70547
G1 X92.867 Y125.395 E8.7361
G1 X92.521 Y124.542 E8.76672
G1 X92.251 Y123.662 E8.79733
G1 X92.058 Y122.761 E8.82798
G1 X91.944 Y121.848 E8.85858
G1 X91.913 Y121.277 E8.8776
G1 X91.904 Y120.944 E8.88868
G1 X91.9 Y120.658 E8.8982
G1 X91.901 Y114.531 E9.10198
G1 X91.91 Y113.866 E9.1241
G1 X91.962 Y112.946 E9.15475
G1 X92.094 Y112.035 E9.18537
G1 X92.305 Y111.139 E9.21598
G1 X92.592 Y110.264 E9.24661
G1 X92.955 Y109.418 E9.27723
G1 X93.389 Y108.606 E9.30785
G1 X93.892 Y107.835 E9.33847
G1 X94.461 Y107.111 E9.3691
G1 X95.089 Y106.439 E9.39969
G1 X95.774 Y105.823 E9.43033
G0 F6000 X96.162 Y106.024
G1 F1200 X96.894 Y105.494 E9.46039
G1 X97.669 Y105.031 E9.49041
G1 X98.482 Y104.638 E9.52045
G1 X99.327 Y104.318 E9.5505
G1 X100.196 Y104.075 E9.58051
G1 X101.084 Y103.909 E9.61056
G1 X102.223 Y103.813 E9.64858
G1 X102.544 Y103.804 E9.65926
G1 X102.83 Y103.8 E9.66877
G1 X131.793 Y103.8 E10.63208
G1 X132.637 Y103.811 E10.66016
G1 X133.539 Y103.864 E10.69021
G1 X134.432 Y103.996 E10.72023
G1 X135.31 Y104.207 E10.75027
G1 X136.166 Y104.495 E10.78031
G1 X136.993 Y104.857 E10.81033
G1 X137.785 Y105.292 E10.84039
G1 X138.536 Y105.794 E10.87043
G1 X139.239 Y106.361 E10.90047
G1 X139.889 Y106.988 E10.93051
G1 X140.481 Y107.67 E10.96055
G1 X141.011 Y108.401 E10.99058
G1 X141.473 Y109.177 E11.02061
G1 X141.866 Y109.99 E11.05065
G1 X142.184 Y110.835 E11.08068
G1 X142.427 Y111.705 E11.11072
G1 X142.592 Y112.593 E11.14076
G1 X142.687 Y113.723 E11.17848
G1 X142.696 Y114.043 E11.18913
G1 X142.7 Y114.33 E11.19867
G1 X142.699 Y120.39 E11.40023
G1 X142.69 Y121.117 E11.42441
G1 X142.639 Y122.019 E11.45446
G1 X142.508 Y122.913 E11.48451
G1 X142.299 Y123.791 E11.51453
G1 X142.013 Y124.648 E11.54458
G1 X141.652 Y125.476 E11.57462
G1 X141.22 Y126.268 E11.60463
G1 X140.719 Y127.02 E11.63468
G1 X140.153 Y127.724 E11.66473
G1 X139.528 Y128.375 E11.69474
G1 X138.847 Y128.969 E11.7248
G1 X138.116 Y129.5 E11.75485
G1 X137.342 Y129.964 E11.78486
G1 X136.529 Y130.358 E11.81491
G1 X135.685 Y130.678 E11.84493
G1 X134.815 Y130.923 E11.875
G1 X133.928 Y131.089 E11.90501
G1 X132.777 Y131.187 E11.94343
G1 X132.456 Y131.196 E11.95411
G1 X132.17 Y131.2 E11.96362
G1 X103.075 Y131.199 E12.93133
G1 X102.377 Y131.19 E12.95455
G1 X101.476 Y131.139 E12.98456
G1 X100.582 Y131.007 E13.01462
G1 X99.704 Y130.798 E13.04464
G1 X98.847 Y130.511 E13.0747
G1 X98.02 Y130.15 E13.10471
G1 X97.227 Y129.717 E13.13476
G1 X96.476 Y129.216 E13.16479
G1 X95.772 Y128.65 E13.19483
G1 X95.121 Y128.024 E13.22487
G1 X94.528 Y127.343 E13.2549
G1 X93.998 Y126.612 E13.28493
G1 X93.534 Y125.837 E13.31498
G1 X93.14 Y125.024 E13.34503
G1 X92.82 Y124.18 E13.37505
G1 X92.576 Y123.31 E13.4051
G1 X92.41 Y122.422 E13.43515
G1 X92.313 Y121.267 E13.4737
G1 X92.304 Y120.934 E13.48478
G1 X92.3 Y120.658 E13.49396
G1 X92.301 Y114.536 E13.69758
G1 X92.31 Y113.871 E13.7197
G1 X92.362 Y112.969 E13.74975
G1 X92.494 Y112.076 E13.77977
G1 X92.704 Y111.198 E13.8098
G1 X92.991 Y110.341 E13.83986
G1 X93.353 Y109.514 E13.86988
G1 X93.786 Y108.722 E13.8999
G1 X94.288 Y107.971 E13.92995
G1 X94.855 Y107.267 E13.96001
G1 X95.481 Y106.617 E13.99003
G1 X96.162 Y106.024 E14.02006
G1 F2700 E14.02006
;MESH:stringing.stl
G0 F6000 X102.914 Y113.335
G0 X102.914 Y114.414
G0 X131.718 Y114.782
G0 X131.9 Y120.4
;TYPE:WALL-INNER
G1 F2700 E14.02006
G1 F1200 X103.1 Y120.4 E14.97796
G1 X103.1 Y114.6 E15.17086
G1 X131.9 Y114.6 E16.12876
G1 X131.9 Y120.4 E16.32166
G0 F6000 X132.3 Y120.8
;TYPE:WALL-OUTER
G1 F1200 X102.7 Y120.8 E17.30616
G1 X102.7 Y114.2 E17.52568
G1 X132.3 Y114.2 E18.51018
G1 X132.3 Y120.8 E18.7297
G0 F6000 X132.03 Y120.53
G0 X131.79 Y120.01
G0 X131.51 Y120.01
;TYPE:SKIN
G1 F1200 X103.49 Y120.01 E19.66165
G1 X103.49 Y114.99 E19.82861
G1 X131.51 Y114.99 E20.76056
G1 X131.51 Y120.01 E20.92753
G0 F6000 X131.79 Y120.01
G0 X131.79 Y115.51
G0 X131.349 Y115.51
G1 F1200 X130.988 Y115.149 E20.94451
G0 F6000 X130.423 Y115.149
G1 F1200 X131.349 Y116.075 E20.98806
G0 F6000 X131.349 Y116.641
G1 F1200 X129.857 Y115.149 E21.05824
G0 F6000 X129.291 Y115.149
G1 F1200 X131.349 Y117.207 E21.15505
G0 F6000 X131.349 Y117.772
G1 F1200 X128.725 Y115.149 E21.27845
G0 F6000 X128.16 Y115.149
G1 F1200 X131.349 Y118.338 E21.42845
G0 F6000 X131.349 Y118.904
G1 F1200 X127.594 Y115.149 E21.60507
G0 F6000 X127.028 Y115.149
G1 F1200 X131.349 Y119.469 E21.80829
G0 F6000 X131.163 Y119.849
G1 F1200 X126.463 Y115.149 E22.02937
G0 F6000 X125.897 Y115.149
G1 F1200 X130.597 Y119.849 E22.25044
G0 F6000 X130.031 Y119.849
G1 F1200 X125.331 Y115.149 E22.47152
G0 F6000 X124.766 Y115.149
G1 F1200 X129.466 Y119.849 E22.69259
G0 F6000 X128.9 Y119.849
G1 F1200 X124.2 Y115.149 E22.91366
G0 F6000 X123.634 Y115.149
G1 F1200 X128.334 Y119.849 E23.13474
G0 F6000 X127.769 Y119.849
G1 F1200 X123.069 Y115.149 E23.35581
G0 F6000 X122.503 Y115.149
G1 F1200 X127.203 Y119.849 E23.57688
G0 F6000 X126.637 Y119.849
G1 F1200 X121.937 Y115.149 E23.79796
G0 F6000 X121.372 Y115.149
G1 F1200 X126.072 Y119.849 E24.01903
G0 F6000 X125.506 Y119.849
G1 F1200 X120.806 Y115.149 E24.2401
G0 F6000 X120.24 Y115.149
G1 F1200 X124.94 Y119.849 E24.46118
G0 F6000 X124.375 Y119.849
G1 F1200 X119.674 Y115.149 E24.68227
G0 F6000 X119.109 Y115.149
G1 F1200 X123.809 Y119.849 E24.90335
G0 F6000 X123.243 Y119.849
G1 F1200 X118.543 Y115.149 E25.12442
G0 F6000 X117.977 Y115.149
G1 F1200 X122.678 Y119.849 E25.34552
G0 F6000 X122.112 Y119.849
G1 F1200 X117.412 Y115.149 E25.56659
G0 F6000 X116.846 Y115.149
G1 F1200 X121.546 Y119.849 E25.78767
G0 F6000 X120.981 Y119.849
G1 F1200 X116.28 Y115.149 E26.00876
G0 F6000 X115.715 Y115.149
G1 F1200 X120.415 Y119.849 E26.22984
G0 F6000 X119.849 Y119.849
G1 F1200 X115.149 Y115.149 E26.45091
G0 F6000 X114.583 Y115.149
G1 F1200 X119.283 Y119.849 E26.67198
G0 F6000 X118.718 Y119.849
G1 F1200 X114.018 Y115.149 E26.89306
G0 F6000 X113.452 Y115.149
G1 F1200 X118.152 Y119.849 E27.11413
G0 F6000 X117.586 Y119.849
G1 F1200 X112.886 Y115.149 E27.3352
G0 F6000 X112.321 Y115.149
G1 F1200 X117.021 Y119.849 E27.55628
G0 F6000 X116.455 Y119.849
G1 F1200 X111.755 Y115.149 E27.77735
G0 F6000 X111.189 Y115.149
G1 F1200 X115.889 Y119.849 E27.99843
G0 F6000 X115.324 Y119.849
G1 F1200 X110.624 Y115.149 E28.2195
G0 F6000 X110.058 Y115.149
G1 F1200 X114.758 Y119.849 E28.44057
G0 F6000 X114.192 Y119.849
G1 F1200 X109.492 Y115.149 E28.66165
G0 F6000 X108.926 Y115.149
G1 F1200 X113.627 Y119.849 E28.88274
G0 F6000 X113.061 Y119.849
G1 F1200 X108.361 Y115.149 E29.10382
G0 F6000 X107.795 Y115.149
G1 F1200 X112.495 Y119.849 E29.32489
G0 F6000 X111.93 Y119.849
G1 F1200 X107.229 Y115.149 E29.54599
G0 F6000 X106.664 Y115.149
G1 F1200 X111.364 Y119.849 E29.76706
G0 F6000 X110.798 Y119.849
G1 F1200 X106.098 Y115.149 E29.98814
G0 F6000 X105.532 Y115.149
G1 F1200 X110.232 Y119.849 E30.20921
G0 F6000 X109.667 Y119.849
G1 F1200 X104.967 Y115.149 E30.43028
G0 F6000 X104.401 Y115.149
G1 F1200 X109.101 Y119.849 E30.65136
G0 F6000 X108.535 Y119.849
G1 F1200 X103.835 Y115.149 E30.87243
G0 F6000 X103.649 Y115.529
G1 F1200 X107.97 Y119.849 E31.07565
G0 F6000 X107.404 Y119.849
G1 F1200 X103.649 Y116.094 E31.25228
G0 F6000 X103.649 Y116.66
G1 F1200 X106.838 Y119.849 E31.40228
G0 F6000 X106.273 Y119.849
G1 F1200 X103.649 Y117.226 E31.52568
G0 F6000 X103.649 Y117.791
G1 F1200 X105.707 Y119.849 E31.62248
G0 F6000 X105.141 Y119.849
G1 F1200 X103.649 Y118.357 E31.69266
G0 F6000 X103.649 Y118.923
G1 F1200 X104.576 Y119.849 E31.73624
G0 F6000 X104.01 Y119.849
G1 F1200 X103.649 Y119.489 E31.7532
G0 F6000 X103.3 Y119.489
;MESH:NONMESH
G0 F300 X103.3 Y119.489 Z0.4
G0 F6000 X103.21 Y119.489
G0 X103.282 Y120.218
G0 X131.9 Y120.4
;TIME_ELAPSED:58.756311
;LAYER:1
M106 S85
;TYPE:WALL-INNER
;MESH:stringing.stl
G1 F1350 X103.1 Y120.4 E32.71109
G1 X103.1 Y114.6 E32.904
G1 X131.9 Y114.6 E33.86189
G1 X131.9 Y120.4 E34.0548
G0 F7500 X132.3 Y120.8
;TYPE:WALL-OUTER
G1 F1350 X102.7 Y120.8 E35.0393
G1 X102.7 Y114.2 E35.25881
G1 X132.3 Y114.2 E36.24331
G1 X132.3 Y120.8 E36.46283
G0 F7500 X132.03 Y120.53
G0 X131.79 Y120.01
G0 X131.51 Y120.01
;TYPE:SKIN
G1 F1350 X103.49 Y120.01 E37.39478
G1 X103.49 Y114.99 E37.56175
G1 X131.51 Y114.99 E38.49369
G1 X131.51 Y120.01 E38.66066
G0 F7500 X131.349 Y119.249
G1 F1350 X130.748 Y119.85 E38.68893
G0 F7500 X130.182 Y119.85
G1 F1350 X131.349 Y118.683 E38.74382
G0 F7500 X131.349 Y118.117
G1 F1350 X129.616 Y119.85 E38.82534
G0 F7500 X129.051 Y119.85
G1 F1350 X131.349 Y117.552 E38.93343
G0 F7500 X131.349 Y116.986
G1 F1350 X128.485 Y119.85 E39.06814
G0 F7500 X127.919 Y119.85
G1 F1350 X131.349 Y116.42 E39.22948
G0 F7500 X131.349 Y115.855
G1 F1350 X127.354 Y119.85 E39.41739
G0 F7500 X126.788 Y119.85
G1 F1350 X131.349 Y115.289 E39.63193
G0 F7500 X130.924 Y115.148
G1 F1350 X126.222 Y119.85 E39.85309
G0 F7500 X125.657 Y119.85
G1 F1350 X130.358 Y115.148 E40.07424
G0 F7500 X129.792 Y115.148
G1 F1350 X125.091 Y119.85 E40.29538
G0 F7500 X124.525 Y119.85
G1 F1350 X129.227 Y115.148 E40.51655
G0 F7500 X128.661 Y115.148
G1 F1350 X123.96 Y119.85 E40.73769
G0 F7500 X123.394 Y119.85
G1 F1350 X128.095 Y115.148 E40.95884
G0 F7500 X127.53 Y115.148
G1 F1350 X122.828 Y119.85 E41.18001
G0 F7500 X122.263 Y119.85
G1 F1350 X126.964 Y115.148 E41.40115
G0 F7500 X126.398 Y115.148
G1 F1350 X121.697 Y119.85 E41.62229
G0 F7500 X121.131 Y119.85
G1 F1350 X125.833 Y115.148 E41.84346
G0 F7500 X125.267 Y115.148
G1 F1350 X120.565 Y119.85 E42.06463
G0 F7500 X120 Y119.85
G1 F1350 X124.701 Y115.148 E42.28577
G0 F7500 X124.136 Y115.148
G1 F1350 X119.434 Y119.85 E42.50694
G0 F7500 X118.868 Y119.85
G1 F1350 X123.57 Y115.148 E42.72811
G0 F7500 X123.004 Y115.148
G1 F1350 X118.303 Y119.85 E42.94925
G0 F7500 X117.737 Y119.85
G1 F1350 X122.439 Y115.148 E43.17042
G0 F7500 X121.873 Y115.148
G1 F1350 X117.171 Y119.85 E43.39159
G0 F7500 X116.606 Y119.85
G1 F1350 X121.307 Y115.148 E43.61273
G0 F7500 X120.742 Y115.148
G1 F1350 X116.04 Y119.85 E43.8339
G0 F7500 X115.474 Y119.85
G1 F1350 X120.176 Y115.148 E44.05507
G0 F7500 X119.61 Y115.148
G1 F1350 X114.909 Y119.85 E44.27621
G0 F7500 X114.343 Y119.85
G1 F1350 X119.044 Y115.148 E44.49736
G0 F7500 X118.479 Y115.148
